icons/key-asterisk-16.svg

<svg width="16" height="16" viewBox="0 0 16 16" fill="none" xmlns="http://www.w3.org/2000/svg">
<path fill-rule="evenodd" clip-rule="evenodd" d="M0 2.75C0 1.23122 1.23122 0 2.75 0H13.25C14.7688 0 16 1.23122 16 2.75V13.25C16 14.7688 14.7688 16 13.25 16H2.75C1.23122 16 0 14.7688 0 13.25V2.75ZM2.75 1.5C2.05964 1.5 1.5 2.05964 1.5 2.75V13.25C1.5 13.9404 2.05964 14.5 2.75 14.5H13.25C13.9404 14.5 14.5 13.9404 14.5 13.25V2.75C14.5 2.05964 13.9404 1.5 13.25 1.5H2.75Z" fill="black"/>
<path d="M8 4C8.41421 4 8.75 4.33579 8.75 4.75V6.70081L10.4393 5.72546C10.7981 5.51836 11.2568 5.64126 11.4639 5.99998C11.671 6.3587 11.5481 6.81739 11.1893 7.0245L9.49997 7.99986L11.1898 8.9755C11.5485 9.1826 11.6714 9.6413 11.4643 10C11.2572 10.3587 10.7985 10.4816 10.4398 10.2745L8.75 9.29892V11.25C8.75 11.6642 8.41421 12 8 12C7.58579 12 7.25 11.6642 7.25 11.25V9.29889L5.56018 10.2745C5.20146 10.4816 4.74277 10.3587 4.53566 9.99998C4.32856 9.64126 4.45146 9.18257 4.81018 8.97546L6.49997 7.99986L4.81065 7.02454C4.45193 6.81743 4.32903 6.35874 4.53613 6.00002C4.74324 5.6413 5.20193 5.51839 5.56065 5.7255L7.25 6.70084V4.75C7.25 4.33579 7.58579 4 8 4Z" fill="black"/>
</svg>

<svg xmlns="http://www.w3.org/2000/svg" width="16" height="16" viewBox="0 0 16 16"><path fill-rule="evenodd" d="M0 2.75A2.75 2.75 0 012.75 0h10.5A2.75 2.75 0 0116 2.75v10.5A2.75 2.75 0 0113.25 16H2.75A2.75 2.75 0 010 13.25V2.75zM2.75 1.5c-.69 0-1.25.56-1.25 1.25v10.5c0 .69.56 1.25 1.25 1.25h10.5c.69 0 1.25-.56 1.25-1.25V2.75c0-.69-.56-1.25-1.25-1.25H2.75z"/><path d="M8 4a.75.75 0 01.75.75V6.7l1.69-.975a.75.75 0 01.75 1.3L9.5 8l1.69.976a.75.75 0 01-.75 1.298L8.75 9.3v1.951a.75.75 0 01-1.5 0V9.299l-1.69.976a.75.75 0 01-.75-1.3L6.5 8l-1.69-.975a.75.75 0 01.75-1.3l1.69.976V4.75A.75.75 0 018 4z"/></svg>
